icons-dark/actions/22/irc-unvoice.svg

<svg xmlns="http://www.w3.org/2000/svg" viewBox="0 0 22 22">
 <path d="m15 4l-12 3.417969v1.042969 4.539063.582031l1 .285157v2.132812.300781l6 1.699219v-1-1.423828l5 1.423828v-1.042969-10.914062-1.042969m-1 1.328125v10.34375l-10-2.847656v-4.648438l10-2.847656m-12 2.375l-1 .285156v.011719 1 3 1 .011719l1 .285156v-.296875-.746094-3.507812-.746094-.296875m14 2.296875v2h5v-2h-5m-11 4.152344l4 1.138672v1.425781l-4-1.132813v-1.43164" style="fill:#da4453"/>
</svg>

<?xml version="1.0" encoding="UTF-8" standalone="no"?>
<!-- Created with Inkscape (http://www.inkscape.org/) -->

<svg
   xmlns:dc="http://purl.org/dc/elements/1.1/"
   xmlns:cc="http://creativecommons.org/ns#"
   xmlns:rdf="http://www.w3.org/1999/02/22-rdf-syntax-ns#"
   xmlns:svg="http://www.w3.org/2000/svg"
   xmlns="http://www.w3.org/2000/svg"
   xmlns:sodipodi="http://sodipodi.sourceforge.net/DTD/sodipodi-0.dtd"
   xmlns:inkscape="http://www.inkscape.org/namespaces/inkscape"
   width="22"
   height="22"
   id="svg3760"
   version="1.1"
   inkscape:version="0.91+devel r"
   sodipodi:docname="irc-unvoice.svg">
  <defs
     id="defs3762" />
  <sodipodi:namedview
     id="base"
     pagecolor="#ffffff"
     bordercolor="#666666"
     borderopacity="1.0"
     inkscape:pageopacity="0.0"
     inkscape:pageshadow="2"
     inkscape:zoom="22.627417"
     inkscape:cx="12.424539"
     inkscape:cy="12.686871"
     inkscape:document-units="px"
     inkscape:current-layer="layer1"
     showgrid="true"
     fit-margin-top="0"
     fit-margin-left="0"
     fit-margin-right="0"
     fit-margin-bottom="0"
     inkscape:window-width="1366"
     inkscape:window-height="670"
     inkscape:window-x="-4"
     inkscape:window-y="29"
     inkscape:window-maximized="1"
     inkscape:showpageshadow="false">
    <sodipodi:guide
       position="4.1796875e-06,21.999997"
       orientation="22,0"
       id="guide4116" />
    <sodipodi:guide
       position="4.1796875e-06,-2.6953124e-06"
       orientation="0,22"
       id="guide4118" />
    <sodipodi:guide
       position="22.000004,-2.6953124e-06"
       orientation="-22,0"
       id="guide4120" />
    <sodipodi:guide
       position="22.000004,21.999997"
       orientation="0,-22"
       id="guide4122" />
    <sodipodi:guide
       position="2.0000042,19.999997"
       orientation="18,0"
       id="guide4124" />
    <sodipodi:guide
       position="20.000004,1.9999973"
       orientation="-18,0"
       id="guide4128" />
    <sodipodi:guide
       position="20.000004,19.999997"
       orientation="0,-18"
       id="guide4130" />
    <sodipodi:guide
       position="3.0000042,18.999997"
       orientation="16,0"
       id="guide4132" />
    <sodipodi:guide
       position="3.0000042,2.9999973"
       orientation="0,16"
       id="guide4134" />
    <sodipodi:guide
       position="19.000004,2.9999973"
       orientation="-16,0"
       id="guide4136" />
    <sodipodi:guide
       position="19.000004,18.999997"
       orientation="0,-16"
       id="guide4138" />
    <inkscape:grid
       type="xygrid"
       id="grid4140" />
  </sodipodi:namedview>
  <metadata
     id="metadata3765">
    <rdf:RDF>
      <cc:Work
         rdf:about="">
        <dc:format>image/svg+xml</dc:format>
        <dc:type
           rdf:resource="http://purl.org/dc/dcmitype/StillImage" />
        <dc:title></dc:title>
      </cc:Work>
    </rdf:RDF>
  </metadata>
  <g
     inkscape:label="Capa 1"
     inkscape:groupmode="layer"
     id="layer1"
     transform="translate(-553.72253,-583.11926)">
    <path
       style="opacity:1;fill:#da4453;fill-opacity:1;stroke:none;stroke-width:0.1;stroke-linecap:round;stroke-linejoin:miter;stroke-miterlimit:4;stroke-dasharray:none;stroke-opacity:0.29943501"
       d="M 15 4 L 3 7.4179688 L 3 8.4609375 L 3 13 L 3 13.582031 L 4 13.867188 L 4 16 L 4 16.300781 L 10 18 L 10 17 L 10 15.576172 L 15 17 L 15 15.957031 L 15 5.0429688 L 15 4 z M 14 5.328125 L 14 15.671875 L 4 12.824219 L 4 8.1757812 L 14 5.328125 z M 2 7.703125 L 1 7.9882812 L 1 8 L 1 9 L 1 12 L 1 13 L 1 13.011719 L 2 13.296875 L 2 13 L 2 12.253906 L 2 8.7460938 L 2 8 L 2 7.703125 z M 16 10 L 16 12 L 21 12 L 21 10 L 16 10 z M 5 14.152344 L 9 15.291016 L 9 16.716797 L 5 15.583984 L 5 14.152344 z "
       transform="translate(553.72253,583.11926)"
       id="rect3353" />
  </g>
</svg>
